icons/1_Primary/Gatsby.svg

<svg xmlns="http://www.w3.org/2000/svg" viewBox="0 0 1024 1024">
   <circle cx="512" cy="512" r="512" style="fill:#639"/>
   <path d="M512 256c-140.8 0-256 115.2-256 256s115.2 256 256 256 256-115.2 256-256-115.2-256-256-256zM369.4 654.6c-38.4-38.4-58.5-89.6-58.5-139l199.3 197.5c-51.2-1.8-102.4-20.1-140.8-58.5zm186.5 53.1L316.3 468.1c20.1-89.6 100.6-157.3 195.7-157.3 67.7 0 126.2 32.9 162.7 82.3l-27.4 23.8c-31.1-42.1-80.5-69.5-135.3-69.5-71.3 0-131.7 45.7-155.4 109.7l210.3 210.3c53-18.3 93.3-64 106.1-118.9h-87.8V512h128c-.1 95.1-67.7 175.5-157.3 195.7z" style="fill:#fff"/>
</svg>

<svg width="1024" height="1024" viewBox="0 0 1024 1024" fill="none" xmlns="http://www.w3.org/2000/svg">
<g clip-path="url(#clip0_2_2268)">
<path d="M512 1024C794.77 1024 1024 794.77 1024 512C1024 229.23 794.77 0 512 0C229.23 0 0 229.23 0 512C0 794.77 229.23 1024 512 1024Z" fill="#8C72BD"/>
<path d="M512 256C371.2 256 256 371.2 256 512C256 652.8 371.2 768 512 768C652.8 768 768 652.8 768 512C768 371.2 652.8 256 512 256ZM369.4 654.6C331 616.2 310.9 565 310.9 515.6L510.2 713.1C459 711.3 407.8 693 369.4 654.6ZM555.9 707.7L316.3 468.1C336.4 378.5 416.9 310.8 512 310.8C579.7 310.8 638.2 343.7 674.7 393.1L647.3 416.9C616.2 374.8 566.8 347.4 512 347.4C440.7 347.4 380.3 393.1 356.6 457.1L566.9 667.4C619.9 649.1 660.2 603.4 673 548.5H585.2V512H713.2C713.1 607.1 645.5 687.5 555.9 707.7Z" fill="white"/>
</g>
<defs>
<clipPath id="clip0_2_2268">
<rect width="1024" height="1024" fill="white"/>
</clipPath>
</defs>
</svg>
